X:1
T:Title
%%score 1 2 3 4
L:1/8
M:4/2
K:F
V:1 treble nm="Part_1"
V:2 treble-8 nm="Part_2"
V:3 treble-8 nm="Part_3"
V:4 bass nm="Part_4"
V:1
 (3z8 z8 F8 | (3:2:2G16 A8 | (3:2:2B16 F8 | G4 B4 B4 A4 | B4 z2 B2 B2 B2 B2 B2 | %5
 A2 B2 F6 G2 A2 B2 | A4 G4 F8 | (3:2:2G16 F8 | (3:2:2G16 A8 | (3:2:2B16 F8 | G4 B4 B4 A4 | %11
 B4 z2 B2 B4 B2 B2 | B2 B2 F6 G2 A2 B2 | A4 G4 F8 | G4 B4 B2 B2 B2 B2 | A2 G2 A2 B2 c4 A4 | %16
 B8 A6 G2 | F6 F2 G3 A B2 G2 | A4 D2 D2 G2 G2 G2 G2 | F8 F4 G4 | G2 G2 G4 F8 | A6 G2 F3 E F4 | %22
 E4 A2 AA A4 c2 cc | B2 A2 G4 F4 z2 F2 |: G4 G4 F4 F4 | F2 F2 F2 F2 E8 | D8 z4 G4 | G4 G4 F8 | %28
 z4 B4 B2 B2 B2 B2 | A2 G2 A2 B2 c6 B2 | A4 G8 ^F4 | G16 |] %32
V:2
 (3z8 z8 d8 | (3:2:2e16 f8 | (3:2:2f16 d8 | e4 f4 f4 f4 | d2 f2 g2 g2 f2 f2 g2 g2 | %5
 f2 B2 d2 d2 c4 f4 | f2 f2 d2 e2 d8 | (3:2:2d16 d8 | (3:2:2e16 f8 | (3:2:2f16 d8 | e4 f4 f4 f4 | %11
 d2 f2 g4 f2 f2 g2 g2 | f2 B2 d4 c4 f4 | f2 f2 d2 e2 d6 d2 | d4 d2 d2 d2 d2 d2 e2 | %15
 f2 g2 f4 e4 f4 | f2 f2 f4 f4 f2 e2 | d4 d4 B2 c2 d2 e2 | f4 f2 f2 B2 G2 c2 c2 | d4 A8 _e4 | %20
 _e2 e2 e4 d8 | z4 A6 A2 d2 d2 | c4 A4 f2 ff e4 | d2 dd B2 c2 d4 c2 d2 |: e2 e2 d8 c4 | %25
 c2 c2 c2 d2 c8 | A8 z4 _e4 | _e4 e4 d8 | d4 d2 d2 d2 d2 B2 B2 | f4 f2 f2 f2 f2 g4 | %30
 f2 e2 d2 c2 d8 | d16 |] %32
V:3
 (3z8 z8 A8 | (3:2:2c16 c8 | (3:2:2d16 A8 | c4 d4 c4 c4 | B2 d2 c2 G2 d4 z4 | z2 G2 A2 B2 A4 d4 | %6
 c2 c2 B2 c2 A8 | (3:2:2G16 A8 | (3:2:2c16 c8 | (3:2:2d16 A8 | c4 d4 c4 c4 | %11
 B2 d2 B2 G2 d2 dd B2 G2 | d2 G2 A2 B2 A4 D2 d2 | c2 c2 B2 c2 A8 | G4 G4 G2 G2 G2 G2 | %15
 D2 E2 F2 G2 A4 D4 | d8 c4 c4 | A8 z8 | z4 F4 G3 A B2 G2 | A8 D4 B4 | B2 B2 B4 B4 d4- | %21
 d2 d2 c2 c2 d4 A4- | A4 c4 d2 dd G4 | G2 FF G2 G2 B4 A2 A2 |: c4 B4 A4 A4 | A2 A2 A2 B2 A8 | %26
 ^F4 A4 c4 c4 | B4 B4 B2 B2 B2 B2 | A4 G4 z4 d4 | d2 d2 d2 d2 c2 d2 e2 d2 | c2 B2 A2 G2 A8 | G16 |] %32
V:4
 (3z8 z8 D,8 | (3:2:2C,16 F,8 | (3:2:2B,,16 D,8 | C,4 B,,4 F,4 F,4 | B,,2 B,,2 _E,2 E,2 B,,4 z4 | %5
 z2 _E,2 D,2 B,,2 F,6 B,,2 | F,2 F,2 G,2 C,2 D,8 | (3:2:2G,,16 D,8 | (3:2:2C,16 F,8 | %9
 (3:2:2B,,16 D,8 | C,4 B,,4 F,4 F,4 | B,,4 _E,4 B,,2 B,,B,, E,2 E,2 | %12
 B,,2 _E,2 D,2 B,,2 F,4 z2 B,,2 | F,2 F,2 G,2 C,2 D,8 | G,,8 z8 | z16 | B,,8 F,6 C,2 | %17
 D,8 z4 G,,4 | D,2 D,2 D,2 B,,2 _E,8 | D,8 z4 _E,4 | _E,2 E,2 E,4 B,,8 | F,6 E,2 D,3 C, D,4 | %22
 A,,4 F,2 F,F, D,4 C,2 C,C, | G,2 D,2 _E,4 D,4 z2 D,2 |: C,4 G,,4 D,4 F,4 | F,2 F,2 F,2 B,,2 C,8 | %26
 D,8 z4 C,4 | _E,4 E,4 B,,2 A,,2 B,,2 C,2 | D,4 G,4 G,2 G,2 G,2 G,2 | D,4 F,6 E,D, C,4 | %30
 F,4 G,4 D,8 | G,,16 |] %32

